X:3
T:No.23 Mary O'The Wisp
C:reel
M:4/4
L:1/8
K:D
Addd ecdB|Addc dedB|Adde fdeg|
fage fdBG|Addd ecdB|Addc dedB|
Adde faed|[1cA (3AAA cBAA:|
|[2cA (3AAA cA (3AAA||fAgA fdge|fdge fd d2|
fage fefg|aA (3AAA aA (3AAA|fAgA fdge|
fage fefg|abaf egfd|cA (3AAA cBAA:|
